Newaita-dark/.places-manjaro/64/folder-wine.svg

<?xml version="1.0" encoding="UTF-8"?>
<svg xmlns="http://www.w3.org/2000/svg" xmlns:xlink="http://www.w3.org/1999/xlink" width="64px" height="64px" viewBox="0 0 64 64" version="1.1">
<defs>
<linearGradient id="linear0" gradientUnits="userSpaceOnUse" x1="254" y1="233.5" x2="254" y2="254.666672" gradientTransform="matrix(0.125012,0,0,0.125012,-0.00000763012,26.877574)">
<stop offset="0" style="stop-color:rgb(0%,0%,0%);stop-opacity:0.27451;"/>
<stop offset="1" style="stop-color:rgb(0%,0%,0%);stop-opacity:0;"/>
</linearGradient>
<radialGradient id="radial0" gradientUnits="userSpaceOnUse" cx="450.908936" cy="189.579361" fx="450.908936" fy="189.579361" r="21.166656" gradientTransform="matrix(0.000000348341,-0.156265,-0.281277,-0.000000203077,108.230425,127.190669)">
<stop offset="0" style="stop-color:rgb(0%,0%,0%);stop-opacity:0.313726;"/>
<stop offset="0.222222" style="stop-color:rgb(0%,0%,0%);stop-opacity:0.27451;"/>
<stop offset="1" style="stop-color:rgb(0%,0%,0%);stop-opacity:0;"/>
</radialGradient>
<radialGradient id="radial1" gradientUnits="userSpaceOnUse" cx="450.908936" cy="189.579361" fx="450.908936" fy="189.579361" r="21.166656" gradientTransform="matrix(-0.000000348341,0.156265,0.281277,0.000000203077,-44.724356,-15.054954)">
<stop offset="0" style="stop-color:rgb(0%,0%,0%);stop-opacity:0.313726;"/>
<stop offset="0.222222" style="stop-color:rgb(0%,0%,0%);stop-opacity:0.27451;"/>
<stop offset="1" style="stop-color:rgb(0%,0%,0%);stop-opacity:0;"/>
</radialGradient>
<radialGradient id="radial2" gradientUnits="userSpaceOnUse" cx="450.908936" cy="189.579361" fx="450.908936" fy="189.579361" r="21.166656" gradientTransform="matrix(-0.000000348341,-0.156265,0.281277,-0.000000203077,-44.724356,127.190669)">
<stop offset="0" style="stop-color:rgb(0%,0%,0%);stop-opacity:0.313726;"/>
<stop offset="0.222222" style="stop-color:rgb(0%,0%,0%);stop-opacity:0.27451;"/>
<stop offset="1" style="stop-color:rgb(0%,0%,0%);stop-opacity:0;"/>
</radialGradient>
<radialGradient id="radial3" gradientUnits="userSpaceOnUse" cx="450.908936" cy="189.579361" fx="450.908936" fy="189.579361" r="21.166656" gradientTransform="matrix(0.000000348341,0.156265,-0.281277,0.000000203077,108.230422,-15.054955)">
<stop offset="0" style="stop-color:rgb(0%,0%,0%);stop-opacity:0.313726;"/>
<stop offset="0.222222" style="stop-color:rgb(0%,0%,0%);stop-opacity:0.27451;"/>
<stop offset="1" style="stop-color:rgb(0%,0%,0%);stop-opacity:0;"/>
</radialGradient>
<linearGradient id="linear1" gradientUnits="userSpaceOnUse" x1="254" y1="-147.5" x2="254" y2="-31.083334" gradientTransform="matrix(0.125012,0,0,0.125012,0.00000249951,26.877563)">
<stop offset="0" style="stop-color:rgb(64.313728%,64.313728%,64.313728%);stop-opacity:0;"/>
<stop offset="1" style="stop-color:rgb(100%,100%,100%);stop-opacity:0.196078;"/>
</linearGradient>
<linearGradient id="linear2" gradientUnits="userSpaceOnUse" x1="254" y1="233.5" x2="254" y2="-105.166656" gradientTransform="matrix(0.125012,0,0,0.125012,-0.00000362479,26.877566)">
<stop offset="0" style="stop-color:rgb(34.509805%,34.509805%,34.509805%);stop-opacity:0;"/>
<stop offset="1" style="stop-color:rgb(98.039216%,98.039216%,98.039216%);stop-opacity:0.196078;"/>
</linearGradient>
</defs>
<g id="surface1">
<path style=" stroke:none;fill-rule:nonzero;fill:url(#linear0);" d="M 7.9375 56.066406 L 55.566406 56.066406 L 55.566406 58.714844 L 7.9375 58.714844 Z M 7.9375 56.066406 "/>
<path style=" stroke:none;fill-rule:nonzero;fill:url(#radial0);" d="M 55.566406 56.066406 L 60.859375 56.066406 L 60.859375 53.421875 L 55.566406 53.421875 Z M 55.566406 56.066406 "/>
<path style=" stroke:none;fill-rule:nonzero;fill:url(#radial1);" d="M 7.9375 56.066406 L 2.644531 56.066406 L 2.644531 58.714844 L 7.9375 58.714844 Z M 7.9375 56.066406 "/>
<path style=" stroke:none;fill-rule:nonzero;fill:url(#radial2);" d="M 7.9375 56.066406 L 2.644531 56.066406 L 2.644531 53.421875 L 7.9375 53.421875 Z M 7.9375 56.066406 "/>
<path style=" stroke:none;fill-rule:nonzero;fill:url(#radial3);" d="M 55.566406 56.066406 L 60.859375 56.066406 L 60.859375 58.714844 L 55.566406 58.714844 Z M 55.566406 56.066406 "/>
<path style=" stroke:none;fill-rule:nonzero;fill:rgb(14.901961%,65.098041%,60.392159%);fill-opacity:1;" d="M 14.554688 8.4375 L 57.550781 8.4375 C 59.015625 8.4375 60.199219 9.621094 60.199219 11.085938 L 60.199219 21.007812 C 60.199219 22.46875 59.015625 23.652344 57.550781 23.652344 L 14.554688 23.652344 C 13.09375 23.652344 11.90625 22.46875 11.90625 21.007812 L 11.90625 11.085938 C 11.90625 9.621094 13.09375 8.4375 14.554688 8.4375 Z M 14.554688 8.4375 "/>
<path style=" stroke:none;fill-rule:nonzero;fill:url(#linear1);" d="M 14.554688 8.4375 L 57.550781 8.4375 C 59.015625 8.4375 60.199219 9.621094 60.199219 11.085938 L 60.199219 21.007812 C 60.199219 22.46875 59.015625 23.652344 57.550781 23.652344 L 14.554688 23.652344 C 13.09375 23.652344 11.90625 22.46875 11.90625 21.007812 L 11.90625 11.085938 C 11.90625 9.621094 13.09375 8.4375 14.554688 8.4375 Z M 14.554688 8.4375 "/>
<path style=" stroke:none;fill-rule:nonzero;fill:rgb(100%,100%,100%);fill-opacity:0.392157;" d="M 14.554688 8.605469 C 13.085938 8.605469 11.90625 9.785156 11.90625 11.25 L 11.90625 11.582031 C 11.90625 10.113281 13.085938 8.933594 14.554688 8.933594 L 57.550781 8.933594 C 59.019531 8.933594 60.199219 10.113281 60.199219 11.582031 L 60.199219 11.25 C 60.199219 9.785156 59.019531 8.605469 57.550781 8.605469 Z M 14.554688 8.605469 "/>
<path style=" stroke:none;fill-rule:nonzero;fill:rgb(12.941177%,12.941177%,12.941177%);fill-opacity:1;" d="M 14.554688 8.25 C 12.988281 8.25 11.71875 9.519531 11.71875 11.085938 L 11.71875 21.007812 C 11.71875 22.574219 12.988281 23.839844 14.554688 23.839844 L 57.550781 23.839844 C 59.117188 23.839844 60.386719 22.574219 60.386719 21.007812 L 60.386719 11.085938 C 60.386719 9.519531 59.117188 8.25 57.550781 8.25 Z M 14.554688 8.625 L 57.550781 8.625 C 58.917969 8.625 60.011719 9.71875 60.011719 11.085938 L 60.011719 21.007812 C 60.011719 22.371094 58.917969 23.464844 57.550781 23.464844 L 14.554688 23.464844 C 13.1875 23.464844 12.09375 22.371094 12.09375 21.007812 L 12.09375 11.085938 C 12.09375 9.71875 13.1875 8.625 14.554688 8.625 Z M 14.554688 8.625 "/>
<path style=" stroke:none;fill-rule:nonzero;fill:rgb(9.803922%,72.941178%,61.176473%);fill-opacity:1;" d="M 5.292969 13.730469 C 3.828125 13.730469 2.644531 14.910156 2.644531 16.375 L 2.644531 53.421875 C 2.644531 54.886719 3.828125 56.066406 5.292969 56.066406 L 58.214844 56.066406 C 59.679688 56.066406 60.859375 54.886719 60.859375 53.421875 L 60.859375 20.34375 L 25.136719 20.34375 C 23.671875 20.34375 22.492188 19.164062 22.492188 17.699219 L 22.492188 13.730469 Z M 5.292969 13.730469 "/>
<path style=" stroke:none;fill-rule:nonzero;fill:url(#linear2);" d="M 5.292969 13.730469 C 3.828125 13.730469 2.644531 14.910156 2.644531 16.375 L 2.644531 53.421875 C 2.644531 54.886719 3.828125 56.066406 5.292969 56.066406 L 58.214844 56.066406 C 59.679688 56.066406 60.859375 54.886719 60.859375 53.421875 L 60.859375 20.34375 L 25.136719 20.34375 C 23.671875 20.34375 22.492188 19.164062 22.492188 17.699219 L 22.492188 13.730469 Z M 5.292969 13.730469 "/>
<path style=" stroke:none;fill-rule:nonzero;fill:rgb(0%,0%,0%);fill-opacity:0.196078;" d="M 5.292969 56.066406 C 3.828125 56.066406 2.644531 54.886719 2.644531 53.421875 L 2.644531 53.089844 C 2.644531 54.558594 3.828125 55.738281 5.292969 55.738281 L 58.214844 55.738281 C 59.679688 55.738281 60.859375 54.558594 60.859375 53.089844 L 60.859375 53.421875 C 60.859375 54.886719 59.679688 56.066406 58.214844 56.066406 Z M 5.292969 56.066406 "/>
<path style=" stroke:none;fill-rule:nonzero;fill:rgb(100%,100%,100%);fill-opacity:0.392157;" d="M 24.972656 20.675781 C 23.507812 20.675781 22.328125 19.496094 22.328125 18.03125 L 22.328125 17.699219 C 22.328125 19.164062 23.507812 20.347656 24.972656 20.347656 L 60.859375 20.347656 L 60.859375 20.675781 Z M 24.972656 20.675781 "/>
<path style=" stroke:none;fill-rule:nonzero;fill:rgb(100%,100%,100%);fill-opacity:0.392157;" d="M 5.292969 13.894531 C 3.828125 13.894531 2.644531 15.074219 2.644531 16.542969 L 2.644531 16.871094 C 2.644531 15.40625 3.828125 14.226562 5.292969 14.226562 L 22.492188 14.226562 L 22.492188 13.894531 Z M 5.292969 13.894531 "/>
<path style=" stroke:none;fill-rule:nonzero;fill:rgb(12.941177%,12.941177%,12.941177%);fill-opacity:1;" d="M 5.292969 13.542969 C 3.726562 13.542969 2.457031 14.808594 2.457031 16.375 L 2.457031 53.421875 C 2.457031 54.988281 3.726562 56.253906 5.292969 56.253906 L 58.214844 56.253906 C 59.78125 56.253906 61.046875 54.988281 61.046875 53.421875 L 61.046875 19.96875 L 25.136719 19.96875 C 23.773438 19.96875 22.679688 18.878906 22.679688 17.511719 L 22.679688 13.542969 Z M 5.292969 13.917969 L 22.304688 13.917969 L 22.304688 17.511719 C 22.304688 19.078125 23.570312 20.34375 25.136719 20.34375 L 60.671875 20.34375 L 60.671875 53.421875 C 60.671875 54.785156 59.578125 55.878906 58.214844 55.878906 L 5.292969 55.878906 C 3.925781 55.878906 2.832031 54.785156 2.832031 53.421875 L 2.832031 16.375 C 2.832031 15.011719 3.925781 13.917969 5.292969 13.917969 Z M 5.292969 13.917969 "/>
<path style=" stroke:none;fill-rule:nonzero;fill:rgb(0%,58.823532%,53.333336%);fill-opacity:1;" d="M 23.816406 26.960938 C 23.082031 26.960938 22.492188 27.550781 22.492188 28.285156 L 22.492188 33.574219 C 22.492188 34.308594 23.082031 34.898438 23.816406 34.898438 L 29.105469 34.898438 C 29.839844 34.898438 30.429688 34.308594 30.429688 33.574219 L 30.429688 28.285156 C 30.429688 27.550781 29.839844 26.960938 29.105469 26.960938 Z M 34.398438 26.960938 C 33.667969 26.960938 33.074219 27.550781 33.074219 28.285156 L 33.074219 33.574219 C 33.074219 34.308594 33.667969 34.898438 34.398438 34.898438 L 39.691406 34.898438 C 40.425781 34.898438 41.015625 34.308594 41.015625 33.574219 L 41.015625 28.285156 C 41.015625 27.550781 40.425781 26.960938 39.691406 26.960938 Z M 23.816406 37.546875 C 23.082031 37.546875 22.492188 38.136719 22.492188 38.867188 L 22.492188 44.160156 C 22.492188 44.894531 23.082031 45.484375 23.816406 45.484375 L 29.105469 45.484375 C 29.839844 45.484375 30.429688 44.894531 30.429688 44.160156 L 30.429688 38.867188 C 30.429688 38.136719 29.839844 37.546875 29.105469 37.546875 Z M 34.398438 37.546875 C 33.667969 37.546875 33.074219 38.136719 33.074219 38.867188 L 33.074219 44.160156 C 33.074219 44.894531 33.667969 45.484375 34.398438 45.484375 L 39.691406 45.484375 C 40.425781 45.484375 41.015625 44.894531 41.015625 44.160156 L 41.015625 38.867188 C 41.015625 38.136719 40.425781 37.546875 39.691406 37.546875 Z M 34.398438 37.546875 "/>
<path style=" stroke:none;fill-rule:nonzero;fill:rgb(0%,0%,0%);fill-opacity:0.235294;" d="M 23.816406 26.960938 C 23.082031 26.960938 22.492188 27.550781 22.492188 28.285156 L 22.492188 28.78125 C 22.492188 28.046875 23.082031 27.457031 23.816406 27.457031 L 29.105469 27.457031 C 29.839844 27.457031 30.429688 28.046875 30.429688 28.78125 L 30.429688 28.285156 C 30.429688 27.550781 29.839844 26.960938 29.105469 26.960938 Z M 34.398438 26.960938 C 33.667969 26.960938 33.074219 27.550781 33.074219 28.285156 L 33.074219 28.78125 C 33.074219 28.046875 33.667969 27.457031 34.398438 27.457031 L 39.691406 27.457031 C 40.425781 27.457031 41.015625 28.046875 41.015625 28.78125 L 41.015625 28.285156 C 41.015625 27.550781 40.425781 26.960938 39.691406 26.960938 Z M 23.816406 37.546875 C 23.082031 37.546875 22.492188 38.136719 22.492188 38.867188 L 22.492188 39.363281 C 22.492188 38.632812 23.082031 38.042969 23.816406 38.042969 L 29.105469 38.042969 C 29.839844 38.042969 30.429688 38.632812 30.429688 39.363281 L 30.429688 38.867188 C 30.429688 38.136719 29.839844 37.546875 29.105469 37.546875 Z M 34.398438 37.546875 C 33.667969 37.546875 33.074219 38.136719 33.074219 38.867188 L 33.074219 39.363281 C 33.074219 38.632812 33.667969 38.042969 34.398438 38.042969 L 39.691406 38.042969 C 40.425781 38.042969 41.015625 38.632812 41.015625 39.363281 L 41.015625 38.867188 C 41.015625 38.136719 40.425781 37.546875 39.691406 37.546875 Z M 34.398438 37.546875 "/>
<path style=" stroke:none;fill-rule:nonzero;fill:rgb(100%,100%,100%);fill-opacity:0.392157;" d="M 22.492188 33.574219 L 22.492188 34.070312 C 22.492188 34.804688 23.082031 35.394531 23.816406 35.394531 L 29.105469 35.394531 C 29.839844 35.394531 30.429688 34.804688 30.429688 34.070312 L 30.429688 33.574219 C 30.429688 34.308594 29.839844 34.898438 29.105469 34.898438 L 23.816406 34.898438 C 23.082031 34.898438 22.492188 34.308594 22.492188 33.574219 Z M 33.074219 33.574219 L 33.074219 34.070312 C 33.074219 34.804688 33.667969 35.394531 34.398438 35.394531 L 39.691406 35.394531 C 40.425781 35.394531 41.015625 34.804688 41.015625 34.070312 L 41.015625 33.574219 C 41.015625 34.308594 40.425781 34.898438 39.691406 34.898438 L 34.398438 34.898438 C 33.667969 34.898438 33.074219 34.308594 33.074219 33.574219 Z M 22.492188 44.160156 L 22.492188 44.65625 C 22.492188 45.390625 23.082031 45.980469 23.816406 45.980469 L 29.105469 45.980469 C 29.839844 45.980469 30.429688 45.390625 30.429688 44.65625 L 30.429688 44.160156 C 30.429688 44.894531 29.839844 45.484375 29.105469 45.484375 L 23.816406 45.484375 C 23.082031 45.484375 22.492188 44.894531 22.492188 44.160156 Z M 33.074219 44.160156 L 33.074219 44.65625 C 33.074219 45.390625 33.667969 45.980469 34.398438 45.980469 L 39.691406 45.980469 C 40.425781 45.980469 41.015625 45.390625 41.015625 44.65625 L 41.015625 44.160156 C 41.015625 44.894531 40.425781 45.484375 39.691406 45.484375 L 34.398438 45.484375 C 33.667969 45.484375 33.074219 44.894531 33.074219 44.160156 Z M 33.074219 44.160156 "/>
<path style=" stroke:none;fill-rule:nonzero;fill:rgb(12.941177%,12.941177%,12.941177%);fill-opacity:1;" d="M 23.816406 26.773438 C 22.980469 26.773438 22.304688 27.449219 22.304688 28.285156 L 22.304688 33.574219 C 22.304688 34.410156 22.980469 35.085938 23.816406 35.085938 L 29.105469 35.085938 C 29.941406 35.085938 30.617188 34.410156 30.617188 33.574219 L 30.617188 28.285156 C 30.617188 27.449219 29.941406 26.773438 29.105469 26.773438 Z M 34.398438 26.773438 C 33.566406 26.773438 32.886719 27.449219 32.886719 28.285156 L 32.886719 33.574219 C 32.886719 34.410156 33.566406 35.085938 34.398438 35.085938 L 39.691406 35.085938 C 40.523438 35.085938 41.203125 34.410156 41.203125 33.574219 L 41.203125 28.285156 C 41.203125 27.449219 40.523438 26.773438 39.691406 26.773438 Z M 23.816406 27.148438 L 29.105469 27.148438 C 29.738281 27.148438 30.242188 27.652344 30.242188 28.285156 L 30.242188 33.574219 C 30.242188 34.207031 29.738281 34.710938 29.105469 34.710938 L 23.816406 34.710938 C 23.183594 34.710938 22.679688 34.207031 22.679688 33.574219 L 22.679688 28.285156 C 22.679688 27.652344 23.183594 27.148438 23.816406 27.148438 Z M 34.398438 27.148438 L 39.691406 27.148438 C 40.324219 27.148438 40.828125 27.652344 40.828125 28.285156 L 40.828125 33.574219 C 40.828125 34.207031 40.324219 34.710938 39.691406 34.710938 L 34.398438 34.710938 C 33.765625 34.710938 33.261719 34.207031 33.261719 33.574219 L 33.261719 28.285156 C 33.261719 27.652344 33.765625 27.148438 34.398438 27.148438 Z M 23.816406 37.359375 C 22.980469 37.359375 22.304688 38.035156 22.304688 38.867188 L 22.304688 44.160156 C 22.304688 44.996094 22.980469 45.671875 23.816406 45.671875 L 29.105469 45.671875 C 29.941406 45.671875 30.617188 44.996094 30.617188 44.160156 L 30.617188 38.867188 C 30.617188 38.035156 29.941406 37.359375 29.105469 37.359375 Z M 34.398438 37.359375 C 33.566406 37.359375 32.886719 38.035156 32.886719 38.867188 L 32.886719 44.160156 C 32.886719 44.996094 33.566406 45.671875 34.398438 45.671875 L 39.691406 45.671875 C 40.523438 45.671875 41.203125 44.996094 41.203125 44.160156 L 41.203125 38.867188 C 41.203125 38.035156 40.523438 37.359375 39.691406 37.359375 Z M 23.816406 37.734375 L 29.105469 37.734375 C 29.738281 37.734375 30.242188 38.234375 30.242188 38.867188 L 30.242188 44.160156 C 30.242188 44.792969 29.738281 45.296875 29.105469 45.296875 L 23.816406 45.296875 C 23.183594 45.296875 22.679688 44.792969 22.679688 44.160156 L 22.679688 38.867188 C 22.679688 38.234375 23.183594 37.734375 23.816406 37.734375 Z M 34.398438 37.734375 L 39.691406 37.734375 C 40.324219 37.734375 40.828125 38.234375 40.828125 38.867188 L 40.828125 44.160156 C 40.828125 44.792969 40.324219 45.296875 39.691406 45.296875 L 34.398438 45.296875 C 33.765625 45.296875 33.261719 44.792969 33.261719 44.160156 L 33.261719 38.867188 C 33.261719 38.234375 33.765625 37.734375 34.398438 37.734375 Z M 34.398438 37.734375 "/>
</g>
</svg>

<svg xmlns="http://www.w3.org/2000/svg" width="64pt" height="64pt" viewBox="0 0 64 64"><defs><linearGradient id="a" gradientUnits="userSpaceOnUse" x1="254" y1="233.5" x2="254" y2="254.667" gradientTransform="translate(0 26.878) scale(.12501)"><stop offset="0" stop-opacity=".275"/><stop offset="1" stop-opacity="0"/></linearGradient><radialGradient id="b" gradientUnits="userSpaceOnUse" cx="450.909" cy="189.579" fx="450.909" fy="189.579" r="21.167" gradientTransform="matrix(0 -.15626 -.28128 0 108.23 127.19)"><stop offset="0" stop-opacity=".314"/><stop offset=".222" stop-opacity=".275"/><stop offset="1" stop-opacity="0"/></radialGradient><radialGradient id="c" gradientUnits="userSpaceOnUse" cx="450.909" cy="189.579" fx="450.909" fy="189.579" r="21.167" gradientTransform="matrix(0 .15626 .28128 0 -44.724 -15.055)"><stop offset="0" stop-opacity=".314"/><stop offset=".222" stop-opacity=".275"/><stop offset="1" stop-opacity="0"/></radialGradient><radialGradient id="d" gradientUnits="userSpaceOnUse" cx="450.909" cy="189.579" fx="450.909" fy="189.579" r="21.167" gradientTransform="matrix(0 -.15626 .28128 0 -44.724 127.19)"><stop offset="0" stop-opacity=".314"/><stop offset=".222" stop-opacity=".275"/><stop offset="1" stop-opacity="0"/></radialGradient><radialGradient id="e" gradientUnits="userSpaceOnUse" cx="450.909" cy="189.579" fx="450.909" fy="189.579" r="21.167" gradientTransform="matrix(0 .15626 -.28128 0 108.23 -15.055)"><stop offset="0" stop-opacity=".314"/><stop offset=".222" stop-opacity=".275"/><stop offset="1" stop-opacity="0"/></radialGradient><linearGradient id="f" gradientUnits="userSpaceOnUse" x1="254" y1="-147.5" x2="254" y2="-31.083" gradientTransform="translate(0 26.878) scale(.12501)"><stop offset="0" stop-color="#a4a4a4" stop-opacity="0"/><stop offset="1" stop-color="#fff" stop-opacity=".196"/></linearGradient><linearGradient id="g" gradientUnits="userSpaceOnUse" x1="254" y1="233.5" x2="254" y2="-105.167" gradientTransform="translate(0 26.878) scale(.12501)"><stop offset="0" stop-color="#585858" stop-opacity="0"/><stop offset="1" stop-color="#fafafa" stop-opacity=".196"/></linearGradient><linearGradient id="h" gradientUnits="userSpaceOnUse" x1="254" y1="-147.5" x2="254" y2="233.5" gradientTransform="translate(0 26.878) scale(.12501)"><stop offset="0" stop-color="#a4a4a4" stop-opacity="0"/><stop offset="1" stop-color="#fff" stop-opacity=".196"/></linearGradient></defs><path d="M7.938 56.066h47.628v2.649H7.937zm0 0" fill="url(#a)"/><path d="M55.566 56.066h5.293v-2.644h-5.293zm0 0" fill="url(#b)"/><path d="M7.938 56.066H2.644v2.649h5.292zm0 0" fill="url(#c)"/><path d="M7.938 56.066H2.644v-2.644h5.292zm0 0" fill="url(#d)"/><path d="M55.566 56.066h5.293v2.649h-5.293zm0 0" fill="url(#e)"/><path d="M14.555 8.438H57.55a2.646 2.646 0 0 1 2.648 2.648v9.922a2.645 2.645 0 0 1-2.648 2.644H14.555a2.647 2.647 0 0 1-2.649-2.644v-9.922a2.648 2.648 0 0 1 2.649-2.649zm0 0" fill="#424242"/><path d="M14.555 8.438H57.55a2.646 2.646 0 0 1 2.648 2.648v9.922a2.645 2.645 0 0 1-2.648 2.644H14.555a2.647 2.647 0 0 1-2.649-2.644v-9.922a2.648 2.648 0 0 1 2.649-2.649zm0 0" fill="url(#f)"/><path d="M14.555 8.438a2.64 2.64 0 0 0-2.649 2.648v.328a2.64 2.64 0 0 1 2.649-2.644H57.55a2.64 2.64 0 0 1 2.648 2.644v-.328a2.64 2.64 0 0 0-2.648-2.649zm0 0" fill="#e6e6e6" fill-opacity=".588"/><path d="M14.555 8.25a2.836 2.836 0 0 0-2.836 2.836v9.922a2.832 2.832 0 0 0 2.836 2.832H57.55a2.832 2.832 0 0 0 2.836-2.832v-9.922A2.836 2.836 0 0 0 57.55 8.25zm0 .375H57.55a2.45 2.45 0 0 1 2.46 2.46v9.923a2.45 2.45 0 0 1-2.46 2.457H14.555a2.45 2.45 0 0 1-2.461-2.457v-9.922a2.45 2.45 0 0 1 2.46-2.461zm0 0" fill="#212121"/><path d="M5.293 13.73a2.642 2.642 0 0 0-2.648 2.645v37.047a2.642 2.642 0 0 0 2.648 2.644h52.922a2.639 2.639 0 0 0 2.644-2.644V20.344H25.137a2.639 2.639 0 0 1-2.645-2.645V13.73zm0 0" fill="#1abc9c"/><path d="M5.293 13.73a2.642 2.642 0 0 0-2.648 2.645v37.047a2.642 2.642 0 0 0 2.648 2.644h52.922a2.639 2.639 0 0 0 2.644-2.644V20.344H25.137a2.639 2.639 0 0 1-2.645-2.645V13.73zm0 0" fill="url(#g)"/><path d="M5.293 56.066a2.642 2.642 0 0 1-2.648-2.644v-.332a2.643 2.643 0 0 0 2.648 2.648h52.922a2.64 2.64 0 0 0 2.644-2.648v.332a2.639 2.639 0 0 1-2.644 2.644zm0 0" fill-opacity=".196"/><path d="M5.293 13.73a2.642 2.642 0 0 0-2.648 2.645v.332a2.642 2.642 0 0 1 2.648-2.645h17.2v-.332zm0 0M24.973 20.512a2.64 2.64 0 0 1-2.645-2.649v-.328a2.637 2.637 0 0 0 2.645 2.645h35.886v.332zm0 0" fill="#e6e6e6" fill-opacity=".937"/><path d="M5.293 13.543a2.832 2.832 0 0 0-2.836 2.832v37.047a2.832 2.832 0 0 0 2.836 2.832h52.922a2.83 2.83 0 0 0 2.832-2.832V19.969h-35.91a2.447 2.447 0 0 1-2.457-2.457v-3.969zm0 .375h17.012v3.594a2.83 2.83 0 0 0 2.832 2.832h35.535v33.078a2.449 2.449 0 0 1-2.457 2.457H5.293a2.45 2.45 0 0 1-2.461-2.457V16.375a2.45 2.45 0 0 1 2.461-2.457zm0 0" fill="#212121"/><path d="M23.816 26.96a1.32 1.32 0 0 0-1.324 1.325v5.29c0 .734.59 1.323 1.324 1.323h5.29a1.32 1.32 0 0 0 1.324-1.324v-5.289a1.32 1.32 0 0 0-1.325-1.324zm10.582 0c-.73 0-1.324.59-1.324 1.325v5.29c0 .734.594 1.323 1.324 1.323h5.293a1.32 1.32 0 0 0 1.325-1.324v-5.289a1.32 1.32 0 0 0-1.325-1.324zM23.816 37.548a1.32 1.32 0 0 0-1.324 1.32v5.293c0 .735.59 1.324 1.324 1.324h5.29a1.32 1.32 0 0 0 1.324-1.324v-5.293c0-.73-.59-1.32-1.325-1.32zm10.582 0c-.73 0-1.324.59-1.324 1.32v5.293c0 .735.594 1.324 1.324 1.324h5.293a1.32 1.32 0 0 0 1.325-1.324v-5.293c0-.73-.59-1.32-1.325-1.32zm0 0" fill="#424242"/><path d="M23.816 26.96a1.32 1.32 0 0 0-1.324 1.325v5.29c0 .734.59 1.323 1.324 1.323h5.29a1.32 1.32 0 0 0 1.324-1.324v-5.289a1.32 1.32 0 0 0-1.325-1.324zm10.582 0c-.73 0-1.324.59-1.324 1.325v5.29c0 .734.594 1.323 1.324 1.323h5.293a1.32 1.32 0 0 0 1.325-1.324v-5.289a1.32 1.32 0 0 0-1.325-1.324zM23.816 37.548a1.32 1.32 0 0 0-1.324 1.32v5.293c0 .735.59 1.324 1.324 1.324h5.29a1.32 1.32 0 0 0 1.324-1.324v-5.293c0-.73-.59-1.32-1.325-1.32zm10.582 0c-.73 0-1.324.59-1.324 1.32v5.293c0 .735.594 1.324 1.324 1.324h5.293a1.32 1.32 0 0 0 1.325-1.324v-5.293c0-.73-.59-1.32-1.325-1.32zm0 0" fill="url(#h)"/><path d="M23.816 26.773a1.51 1.51 0 0 0-1.511 1.512v5.29a1.51 1.51 0 0 0 1.511 1.51h5.29a1.51 1.51 0 0 0 1.511-1.51v-5.29a1.51 1.51 0 0 0-1.512-1.512zm10.582 0c-.832 0-1.511.676-1.511 1.512v5.29c0 .835.68 1.51 1.511 1.51h5.293c.832 0 1.512-.675 1.512-1.51v-5.29c0-.836-.68-1.512-1.512-1.512zm-10.582.375h5.29a1.13 1.13 0 0 1 1.136 1.137v5.29a1.13 1.13 0 0 1-1.137 1.136h-5.289a1.13 1.13 0 0 1-1.136-1.137v-5.289a1.13 1.13 0 0 1 1.136-1.137zm10.582 0h5.293a1.13 1.13 0 0 1 1.137 1.137v5.29a1.13 1.13 0 0 1-1.137 1.136h-5.293a1.13 1.13 0 0 1-1.136-1.137v-5.289a1.13 1.13 0 0 1 1.136-1.137zM23.816 37.36a1.51 1.51 0 0 0-1.511 1.508v5.293a1.51 1.51 0 0 0 1.511 1.512h5.29a1.51 1.51 0 0 0 1.511-1.512v-5.293a1.51 1.51 0 0 0-1.512-1.508zm10.582 0c-.832 0-1.511.676-1.511 1.508v5.293c0 .836.68 1.512 1.511 1.512h5.293c.832 0 1.512-.676 1.512-1.512v-5.293c0-.832-.68-1.508-1.512-1.508zm-10.582.375h5.29c.632 0 1.136.5 1.136 1.133v5.293a1.13 1.13 0 0 1-1.137 1.137h-5.289a1.13 1.13 0 0 1-1.136-1.137v-5.293c0-.633.504-1.133 1.136-1.133zm10.582 0h5.293c.633 0 1.137.5 1.137 1.133v5.293a1.13 1.13 0 0 1-1.137 1.137h-5.293a1.13 1.13 0 0 1-1.136-1.137v-5.293c0-.633.504-1.133 1.136-1.133zm0 0" fill="#212121"/></svg>
